X: 41962
T: Wallop The Potlid
R: jig
M: 6/8
K: Gmajor
A|:BAG AGF|DGG FGA|BAB cBc|dgg fdc|
BAG AGF|DGG FGA|BdB cAF|AGF G2 A:|
|:BAB cBc|dgg fdc|BAB cBc|dBG FGA|
BAB cBc|dgg fdc|BdB cAF|AGF G2 A:|
"Final Ending"
BAB cBc|dgg fd^c|def ~g3|eag fd^c|
dgg bgg|a2 g fd=c|BdB cAF|AGF G3|

